icons/miner_worker_fill.svg

<svg width="48" height="48" viewBox="0 0 48 48" fill="none" xmlns="http://www.w3.org/2000/svg">
<path fill-rule="evenodd" clip-rule="evenodd" d="M29 13.4805C28.4477 13.4805 28 13.0327 28 12.4805V7.88184C27.1243 7.48713 26.1235 7.20249 25 7.07488V10.4805C25 11.0327 24.5523 11.4805 24 11.4805C23.4477 11.4805 23 11.0327 23 10.4805V7.01954C21.8662 7.08854 20.8677 7.3368 20 7.70959V12.4805C20 13.0327 19.5523 13.4805 19 13.4805C18.4477 13.4805 18 13.0327 18 12.4805V8.95421C17.0396 9.78034 16.3648 10.7779 15.9603 11.7619C15.8642 11.842 15.7702 11.9251 15.6783 12.0113C15.4355 12.9214 15.4612 13.6835 15.633 14.1621C15.8196 14.682 15.5494 15.2546 15.0296 15.4412C14.5098 15.6278 13.9372 15.3576 13.7506 14.8378C13.6901 14.6693 13.641 14.494 13.6028 14.3132C12.1372 16.364 13.4889 17.8463 16.0957 18.76C16.0327 19.1645 16 19.5787 16 20C16 24.4183 19.5817 28 24 28C28.4183 28 32 24.4183 32 20C32 19.5787 31.9673 19.1645 31.9043 18.76C34.5162 17.8445 35.868 16.3583 34.3886 14.3013C34.3492 14.4816 34.2994 14.6583 34.2391 14.8306C34.0565 15.3519 33.4859 15.6264 32.9647 15.4437C32.4434 15.2611 32.169 14.6906 32.3516 14.1693C32.5466 13.6127 32.5512 12.8737 32.335 12.0708C32.2718 12.0349 32.1928 11.9941 32.0991 11.9492C31.6972 10.9599 30.9947 9.96602 30 9.13118V12.4805C30 13.0327 29.5523 13.4805 29 13.4805ZM24.6437 19.8552C25.15 19.6143 25.5 19.098 25.5 18.5C25.5 17.6716 24.8284 17 24 17C23.1716 17 22.5 17.6716 22.5 18.5C22.5 19.098 22.85 19.6143 23.3563 19.8552C23.5513 19.9481 23.7696 20 24 20C24.2304 20 24.4487 19.9481 24.6437 19.8552ZM24 22C25.5096 22 26.7959 21.0443 27.2871 19.7049C28.2186 19.6141 29.119 19.4837 29.9613 19.3137C29.9868 19.5387 30 19.7677 30 20C30 23.3137 27.3137 26 24 26C20.6863 26 18 23.3137 18 20C18 19.7677 18.0132 19.5387 18.0387 19.3137C18.881 19.4837 19.7814 19.6141 20.7129 19.7049C21.2041 21.0443 22.4904 22 24 22Z" fill="black"/>
<path d="M25 6.99999C25 6.44771 24.5523 6 24 6C23.4477 6 23 6.44771 23 6.99999L25 6.99999Z" fill="black"/>
<path fill-rule="evenodd" clip-rule="evenodd" d="M28.4663 28.4003C29.616 28.5844 30.8136 28.8304 32 29.1345V42H16V29.1345C17.1864 28.8304 18.384 28.5844 19.5337 28.4003L23 31L25 31L28.4663 28.4003ZM26 37C26 38.1046 25.1046 39 24 39C22.8954 39 22 38.1046 22 37C22 35.8954 22.8954 35 24 35C25.1046 35 26 35.8954 26 37Z" fill="black"/>
<path d="M12 30.4254C12.6426 30.167 13.3134 29.9278 14 29.7083V42H12V30.4254Z" fill="black"/>
<path d="M34 29.7083C34.6866 29.9278 35.3574 30.167 36 30.4254V42H34V29.7083Z" fill="black"/>
<path d="M10 31.3451C7.63499 32.5965 6 34.1667 6 36V42H10V31.3451Z" fill="black"/>
<path d="M42 36C42 34.1667 40.365 32.5965 38 31.3451V42H42V36Z" fill="black"/>
</svg>

<svg
  xmlns="http://www.w3.org/2000/svg"
  width="24"
  height="24"
  viewBox="0 0 24 24"
  fill="none"
  stroke="currentColor"
  stroke-width="2"
  stroke-linecap="round"
  stroke-linejoin="round"
>
  <path
    fill-rule="evenodd"
    d="M29 13.48a1 1 0 0 1-1-1V7.882a10 10 0 0 0-3-.807v3.405a1 1 0 0 1-2 0V7.02a8.9 8.9 0 0 0-3 .69v4.77a1 1 0 0 1-2 0V8.955a7.5 7.5 0 0 0-2.04 2.808q-.144.12-.282.25c-.243.91-.217 1.672-.045 2.15a1 1 0 0 1-1.882.676 4 4 0 0 1-.148-.525c-1.466 2.051-.114 3.533 2.493 4.447a8 8 0 1 0 15.809 0c2.611-.916 3.963-2.402 2.484-4.459q-.06.27-.15.53a1 1 0 1 1-1.887-.662c.195-.556.2-1.295-.017-2.098a4 4 0 0 0-.236-.122c-.402-.99-1.104-1.983-2.099-2.818v3.35a1 1 0 0 1-1 1m-4.356 6.375a1.5 1.5 0 1 0-1.288-2.71 1.5 1.5 0 0 0 1.288 2.71M24 22c1.51 0 2.796-.956 3.287-2.295a27 27 0 0 0 2.674-.391Q30 19.652 30 20a6 6 0 1 1-11.961-.686c.842.17 1.742.3 2.674.39A3.5 3.5 0 0 0 24 22"
    clip-rule="evenodd"
  />
  <path d="M25 7a1 1 0 1 0-2 0z" />
  <path
    fill-rule="evenodd"
    d="M28.466 28.4c1.15.184 2.348.43 3.534.735V42H16V29.135a40 40 0 0 1 3.534-.735L23 31h2zM26 37a2 2 0 1 1-4 0 2 2 0 0 1 4 0"
    clip-rule="evenodd"
  />
  <path d="M12 30.425a29 29 0 0 1 2-.717V42h-2z" />
  <path d="M34 29.708c.687.22 1.357.459 2 .717V42h-2z" />
  <path d="M10 31.345C7.635 32.597 6 34.167 6 36v6h4z" />
  <path d="M42 36c0-1.833-1.635-3.404-4-4.655V42h4z" />
</svg>
